packages/kaspersky-hexa-ui-icons/src/iconsSVGs/24/Module.svg

<svg width="24" height="24" viewBox="0 0 24 24" fill="none" xmlns="http://www.w3.org/2000/svg">
<path d="M10 15.7324C10.5978 15.3866 11 14.7403 11 14C11 13.2597 10.5978 12.6134 10 12.2676V7C10 6.44772 9.55228 6 9 6C8.44772 6 8 6.44772 8 7V12.2676C7.4022 12.6134 7 13.2597 7 14C7 14.7403 7.4022 15.3866 8 15.7324V17C8 17.5523 8.44772 18 9 18C9.55228 18 10 17.5523 10 17V15.7324Z" fill="black"/>
<path d="M14 8.26756C13.4022 8.61337 13 9.25972 13 10C13 10.7403 13.4022 11.3866 14 11.7324V17C14 17.5523 14.4477 18 15 18C15.5523 18 16 17.5523 16 17V11.7324C16.5978 11.3866 17 10.7403 17 10C17 9.25972 16.5978 8.61337 16 8.26756V7C16 6.44772 15.5523 6 15 6C14.4477 6 14 6.44772 14 7V8.26756Z" fill="black"/>
<path fill-rule="evenodd" clip-rule="evenodd" d="M5 2C3.34315 2 2 3.34315 2 5V19C2 20.6569 3.34315 22 5 22H19C20.6569 22 22 20.6569 22 19V5C22 3.34315 20.6569 2 19 2H5ZM4 5C4 4.44772 4.44772 4 5 4H19C19.5523 4 20 4.44772 20 5V19C20 19.5523 19.5523 20 19 20H5C4.44772 20 4 19.5523 4 19V5Z" fill="black"/>
</svg>

<svg xmlns="http://www.w3.org/2000/svg" width="24" height="24" fill="none" viewBox="0 0 24 24"><path fill="#000" fill-rule="evenodd" d="M2 5c0-1.6569 1.3431-3 3-3h14c1.6569 0 3 1.3431 3 3v14c0 1.6569-1.3431 3-3 3H5c-1.6569 0-3-1.3431-3-3zm3-1c-.5523 0-1 .4477-1 1v14c0 .5523.4477 1 1 1h14c.5523 0 1-.4477 1-1V5c0-.5523-.4477-1-1-1zm5 11.7324c.5978-.3458 1-.9921 1-1.7324s-.4022-1.3866-1-1.7324V7c0-.5523-.4477-1-1-1s-1 .4477-1 1v5.2676c-.5978.3458-1 .9921-1 1.7324s.4022 1.3866 1 1.7324V17c0 .5523.4477 1 1 1s1-.4477 1-1zm4-7.4648c-.5978.3458-1 .9921-1 1.7324s.4022 1.3866 1 1.7324V17c0 .5523.4477 1 1 1s1-.4477 1-1v-5.2676c.5978-.3458 1-.9921 1-1.7324s-.4022-1.3866-1-1.7324V7c0-.5523-.4477-1-1-1s-1 .4477-1 1z"/></svg>
